_includes/svg/brands-locaweb.svg

<?xml version="1.0" encoding="UTF-8" standalone="no"?>
<svg width="195px" height="31px" viewBox="0 0 195 31" version="1.1" xmlns="http://www.w3.org/2000/svg" xmlns:xlink="http://www.w3.org/1999/xlink" xmlns:sketch="http://www.bohemiancoding.com/sketch/ns">
    <!-- Generator: Sketch 3.4.4 (17249) - http://www.bohemiancoding.com/sketch -->
    <title>locaweb</title>
    <desc>Created with Sketch.</desc>
    <defs></defs>
    <g id="landing" stroke="none" stroke-width="1" fill="none" fill-rule="evenodd" sketch:type="MSPage">
        <g id="landing_page" sketch:type="MSArtboardGroup" transform="translate(-268.000000, -2667.000000)" fill="#F2EBEB">
            <g id="portfolio" sketch:type="MSLayerGroup" transform="translate(-1.000000, 1536.000000)">
                <g id="brands" transform="translate(1.000000, 969.000000)" sketch:type="MSShapeGroup">
                    <g id="brand-logos" transform="translate(65.000000, 150.000000)">
                        <g id="locaweb" transform="translate(203.000000, 12.000000)">
                            <path d="M4.62284505,0.619440184 L10.2679753,0.619440184 L7.14899414,17.2951495 C6.7669987,19.3510353 6.55227214,20.7538344 6.55227214,21.4129601 C6.47991862,22.8157592 6.87047201,23.6689992 7.85230143,24.2151074 C8.72910156,24.6775307 10.3761165,24.986388 12.8291341,24.986388 L18.2976595,24.986388 L17.3142741,30.1955521 L11.2521387,30.1955521 C8.40778971,30.3137462 6.3787793,30.0859854 5.11453776,29.6563459 C2.3456543,28.8022431 0.907919922,26.7394555 0.695527344,23.4688459 C0.695527344,22.2705138 0.907141927,20.2120399 1.46807617,17.2951495 L4.62284505,0.619440184 L4.62284505,0.619440184 Z" id="Shape"></path>
                            <path d="M70.1377865,24.986388 L69.156735,30.1955521 L59.8682552,30.1955521 C58.1146549,30.1955521 56.7500521,30.0859854 55.87014,29.9677914 C52.7161491,29.2232554 50.7509342,27.1708206 49.9846094,23.7837423 C49.4929167,21.6070744 49.599502,18.8092408 50.193112,15.5446702 C50.9648828,11.5804256 52.3318197,8.3227569 54.1881152,5.82687883 C55.5542741,4.00134202 57.1320475,2.67446319 58.9883431,1.93855445 C60.8461947,1.04562883 63.0914876,0.618577454 65.719554,0.618577454 L74.831429,0.618577454 L73.8534896,5.93903374 L65.4410319,5.93903374 C62.883763,5.93903374 60.8493066,6.68356979 59.3788965,8.19766104 C58.2165723,9.40030675 57.2378548,11.6986196 56.6403548,14.8846817 C55.7674447,19.2388804 56.0420768,22.1523198 57.2370768,23.5939417 C58.2157943,24.4471817 59.7632259,24.9855253 62.0038509,24.9855253 L70.1377865,24.9855253 L70.1377865,24.986388 Z" id="Shape"></path>
                            <path d="M109.246807,0.619440184 L111.000407,22.9244632 L120.884831,0.619440184 L127.234824,0.619440184 L128.596315,22.9244632 L138.838617,0.619440184 L144.61834,0.619440184 L130.463503,30.1955521 L123.900339,30.1955521 L122.467272,8.85592408 L112.863704,30.1955521 L106.416462,30.1955521 L103.365166,0.619440184 L109.246807,0.619440184 Z" id="Shape"></path>
                            <path d="M167.895944,0.619440184 L166.909447,5.93989647 L159.478818,5.93989647 C157.518271,5.93989647 156.049417,6.06499233 155.173395,6.37298696 C154.195456,6.68443252 153.416683,7.22018788 152.650358,8.12346626 C152.154775,8.67216258 151.732324,9.2898773 151.453024,9.83080905 C151.281087,10.4951112 150.858636,11.4639571 150.577002,12.8658934 L165.5464,12.8658934 L164.566126,18.150115 L149.495589,18.150115 C149.214733,20.6330521 149.592839,22.4974118 150.473529,23.4697086 C151.453024,24.4489072 153.312432,24.9872508 156.049417,24.9872508 L163.304997,24.9872508 L162.215804,30.1964149 L154.891761,30.1964149 C152.822295,30.1964149 151.068695,30.0868482 149.596729,29.8478719 C147.254186,29.4182324 145.607171,28.2518213 144.517979,26.274444 C143.046012,23.5956672 142.76749,19.8971434 143.634954,15.2332247 C144.623786,10.1828029 146.762493,6.13659893 150.191895,3.22747316 C151.349551,2.25517638 152.540661,1.59173696 153.699095,1.2828796 C154.891761,0.853240031 156.432969,0.619440184 158.288486,0.619440184 L167.895944,0.619440184 L167.895944,0.619440184 L167.895944,0.619440184 Z" id="Shape"></path>
                            <path d="M87.7336947,18.1432132 L91.5575391,18.1432132 L89.6989095,7.77233512 L87.7344727,11.3466258 L87.7344727,0.731595092 L94.3964421,0.619440184 L99.7521582,30.1955521 L93.1306445,30.1955521 L91.8360612,23.3506518 L87.7298047,23.3506518 L87.7298047,18.1432132 L87.7336947,18.1432132 L87.7336947,18.1432132 Z M87.7336947,18.1432132 L87.7336947,18.1432132 L87.7336947,23.3515146 L87.7336947,23.3515146 L81.6684473,23.3515146 L77.7776953,30.1955521 L71.1180599,30.1955521 L87.7336947,0.728144172 L87.7336947,0.728144172 L87.7336947,11.3423121 L87.7336947,11.3423121 L83.9114063,18.1432132 L87.7336947,18.1432132 L87.7336947,18.1432132 L87.7336947,18.1432132 Z" id="Shape"></path>
                            <path d="M182.089681,12.8624425 L183.526637,12.8624425 C184.334196,12.8624425 184.89513,12.7830713 185.27946,12.66574 C185.700355,12.5466833 186.084684,12.4319402 186.473682,12.1204946 C187.453955,11.345763 188.051455,10.3734663 188.329977,9.20705521 C188.50736,8.00268405 188.329977,7.14426764 187.631338,6.59988497 C187.142757,6.13401074 186.269069,5.93989647 184.901354,5.93989647 L182.093571,5.93989647 L182.093571,0.619440184 L187.56054,0.619440184 C189.908529,0.619440184 191.558656,0.967120399 192.544375,1.51667945 C193.62501,2.25431365 194.401449,3.46299847 194.672969,4.9736388 C194.992725,6.06499233 194.992725,7.22018788 194.672969,8.4288727 C194.400671,9.94641488 193.802393,11.345763 192.822119,12.7830713 C191.838734,14.0279908 190.684189,14.8864072 189.490745,15.423888 C191.8364,16.7507669 192.647848,19.11551 192.052682,22.3861196 C191.661351,24.3238113 190.965824,25.9595475 189.910863,27.2829755 C188.930589,28.3311925 187.838285,29.2241181 186.64873,29.6503067 C185.602327,29.9652032 184.059564,30.1964149 182.095905,30.1964149 L182.095905,24.9872508 C182.4779,24.8690567 182.761868,24.8690567 182.940029,24.8690567 C183.425498,24.7569018 183.745254,24.5601994 184.127249,24.2125192 C185.113747,23.5879026 185.705801,22.6156058 185.990547,21.2921779 C186.192048,20.0938459 185.990547,19.2397431 185.285684,18.693635 C184.800215,18.2674463 183.923415,18.0310583 182.662285,18.0310583 L182.095905,18.0310583 L182.095905,12.8615798 L182.089681,12.8615798 L182.089681,12.8624425 Z M182.053893,12.8624425 L182.089681,12.8624425 L182.089681,18.0250192 L182.053893,18.0250192 L174.730628,18.0250192 L173.469499,24.986388 L181.177871,24.986388 L182.053893,24.986388 L182.089681,24.986388 L182.089681,30.1955521 C182.089681,30.1955521 182.089681,30.1955521 182.053893,30.1955521 L181.489069,30.1955521 L166.704056,30.1955521 L172.37875,0.613401074 L182.051559,0.613401074 L182.086569,0.613401074 L182.086569,5.93989647 L182.053893,5.93989647 L177.076283,5.93989647 L175.815153,12.8615798 L182.053893,12.8615798 L182.053893,12.8624425 Z" id="Shape"></path>
                            <path d="M34.4877311,25.184816 C36.0304948,24.8690567 37.2924023,24.0969133 38.238444,23.0435199 C39.7135221,21.4103719 40.7957129,18.8040644 41.3924349,15.4212998 C41.9564811,12.3568827 41.9564811,10.0585698 41.3924349,8.42628451 C40.6953516,6.4860046 39.0483366,5.51370782 36.3829264,5.51370782 C35.7154069,5.51370782 35.1536947,5.51370782 34.4869531,5.59307899 L34.4869531,0.614263804 C35.4368848,0.502108896 36.3105729,0.502108896 37.3616439,0.41669862 C40.027832,0.41669862 42.269235,0.965394939 44.1270866,1.9342408 C46.2657943,3.22143405 47.5269238,5.16257669 47.946263,7.99923313 C48.3313704,10.2949578 48.1228678,12.8598543 47.5245898,15.890625 C47.0328971,18.9257094 46.0868555,21.5259778 44.7253646,23.6672738 C43.0394499,26.3935008 40.9715397,28.2518213 38.3419173,29.2241181 C37.187373,29.7693635 35.9254655,30.08426 34.4869531,30.2680215 L34.4869531,25.184816 L34.4877311,25.184816 Z M34.4542773,25.216737 C34.4542773,25.184816 34.4542773,25.184816 34.4877311,25.184816 L34.4877311,30.2680215 L34.4542773,30.3146089 C33.6490527,30.3896664 32.8772819,30.3896664 32.0020378,30.3896664 C29.0565495,30.3896664 26.5342904,29.7693635 24.5690755,28.5641296 C22.8854948,27.4805406 21.7278385,25.8422163 21.1326725,23.6672738 C20.6425358,21.4112347 20.6425358,18.6944977 21.2392578,15.5429448 C22.3253385,9.94727761 24.3605729,5.9407592 27.4079785,3.56997699 C29.2666081,2.01274923 31.6130404,1.04045245 34.4519434,0.614263804 L34.4853971,0.614263804 L34.4853971,5.59307899 C34.4519434,5.59307899 34.4519434,5.59307899 34.4519434,5.62586273 C32.7691406,6.05895322 31.2979525,6.91909509 30.2461035,8.31844325 C29.0542155,9.74367331 28.1805273,12.1213574 27.5838053,15.3522814 C26.9162858,18.8040644 27.0197591,21.4103719 27.7930859,23.0435199 C28.5656348,24.6723543 30.2461035,25.421204 32.5933138,25.421204 C33.2616113,25.4203413 33.8575553,25.4203413 34.4542773,25.216737 L34.4542773,25.216737 Z" id="Shape"></path>
                        </g>
                    </g>
                </g>
            </g>
        </g>
    </g>
</svg>

<svg width="195" height="31" viewBox="0 0 195 31" xmlns="http://www.w3.org/2000/svg"><title>locaweb</title><g fill="#F2EBEB" fill-rule="evenodd"><path d="M4.623.62h5.645l-3.12 16.675c-.38 2.056-.596 3.46-.596 4.118-.072 1.403.318 2.256 1.3 2.802.877.463 2.524.77 4.977.77h5.468l-.984 5.21h-6.062c-2.844.12-4.873-.11-6.137-.54-2.77-.853-4.207-2.916-4.42-6.186 0-1.2.212-3.258.773-6.175L4.623.62zM70.138 24.986l-.98 5.21h-9.29c-1.753 0-3.118-.11-3.998-.228-3.154-.745-5.12-2.797-5.885-6.184-.492-2.177-.385-4.975.208-8.24.772-3.964 2.14-7.22 3.995-9.717 1.366-1.826 2.944-3.153 4.8-3.888C60.846 1.045 63.09.62 65.72.62h9.11l-.977 5.32H65.44c-2.556 0-4.59.744-6.06 2.258-1.163 1.202-2.142 3.5-2.74 6.687-.873 4.354-.598 7.267.597 8.71.98.852 2.526 1.39 4.767 1.39h8.134zM109.247.62L111 22.923 120.885.62h6.35l1.36 22.304L138.84.62h5.778l-14.154 29.576H123.9l-1.433-21.34-9.603 21.34h-6.448L103.366.62h5.88zM167.896.62l-.987 5.32h-7.43c-1.962 0-3.43.125-4.307.433-.978.31-1.756.847-2.523 1.75a8.41 8.41 0 0 0-1.197 1.708c-.172.665-.594 1.634-.876 3.036h14.97l-.98 5.284h-15.07c-.282 2.483.096 4.347.977 5.32.98.98 2.838 1.517 5.575 1.517h7.255l-1.09 5.21h-7.323c-2.07 0-3.823-.11-5.295-.35-2.343-.43-3.99-1.595-5.08-3.573-1.47-2.678-1.75-6.377-.882-11.04.99-5.05 3.127-9.097 6.557-12.007 1.158-.972 2.35-1.635 3.507-1.944 1.192-.43 2.733-.664 4.588-.664h9.608zM87.734 18.143h3.824l-1.86-10.37-1.964 3.574V.732L94.396.62l5.356 29.576h-6.62l-1.296-6.845H87.73v-5.207h.004zm0 0v5.21h-6.066l-3.89 6.843h-6.66L87.734.728v10.614l-3.823 6.8h3.824zM182.09 12.862h1.437c.807 0 1.368-.08 1.752-.196.42-.12.805-.234 1.194-.546a5.108 5.108 0 0 0 1.856-2.913c.177-1.204 0-2.063-.7-2.607-.487-.466-1.36-.66-2.73-.66h-2.806V.62h5.467c2.35 0 4 .347 4.984.897 1.08.737 1.857 1.946 2.13 3.457.32 1.09.32 2.246 0 3.455-.273 1.516-.872 2.916-1.852 4.353-.983 1.245-2.138 2.103-3.33 2.64 2.344 1.328 3.156 3.693 2.56 6.963-.39 1.938-1.086 3.574-2.14 4.897-.98 1.048-2.074 1.94-3.263 2.367-1.048.315-2.59.546-4.554.546v-5.21c.382-.117.666-.117.844-.117.485-.113.805-.31 1.187-.657.987-.625 1.58-1.597 1.864-2.92.202-1.2 0-2.053-.704-2.6-.486-.426-1.363-.662-2.624-.662h-.566v-5.168h-.006zm-.036 0h.036v5.163h-7.359l-1.26 6.96h8.62v5.21h-15.387L172.38.614h9.707V5.94h-5.011l-1.26 6.922h6.238zM34.488 25.185a6.81 6.81 0 0 0 3.75-2.14c1.476-1.635 2.558-4.24 3.154-7.624.564-3.063.564-5.36 0-6.994-.697-1.94-2.344-2.912-5.01-2.912-.667 0-1.228 0-1.895.08V.613c.95-.112 1.824-.112 2.875-.197 2.666 0 4.907.548 6.765 1.517 2.14 1.287 3.4 3.23 3.82 6.065.384 2.295.176 4.86-.422 7.89-.492 3.036-1.438 5.636-2.8 7.777-1.686 2.727-3.753 4.585-6.383 5.557-1.155.545-2.417.86-3.855 1.044v-5.083zm-.034.032c0-.032 0-.032.034-.032v5.083l-.034.047c-.805.075-1.577.075-2.452.075-2.945 0-5.468-.62-7.433-1.826-1.685-1.083-2.842-2.722-3.437-4.897-.49-2.256-.49-4.973.106-8.124 1.085-5.596 3.12-9.602 6.168-11.973 1.86-1.557 4.205-2.53 7.044-2.956h.033v4.98c-.033 0-.033 0-.033.032-1.683.433-3.154 1.293-4.206 2.692-1.192 1.426-2.065 3.803-2.662 7.034-.668 3.452-.564 6.058.21 7.692.772 1.628 2.452 2.377 4.8 2.377.668 0 1.264 0 1.86-.203z"/></g></svg>
